public/img/vk.svg

<svg width="42" height="42" viewBox="0 0 42 42" fill="none" xmlns="http://www.w3.org/2000/svg">
<circle cx="21" cy="21" r="20.5" stroke="white"/>
<path d="M30.8814 27.6011C29.9829 25.9841 27.6684 24.0411 26.7129 23.1956C26.4514 22.9641 26.4234 22.5636 26.6614 22.3076C28.4849 20.3481 29.9434 18.0966 30.4454 16.7361C30.6669 16.1351 30.2084 15.5001 29.5624 15.5001H27.6859C27.0674 15.5001 26.7054 15.7221 26.5329 16.0756C25.0174 19.1811 23.7174 20.5251 22.8074 21.3106C22.2979 21.7506 21.5034 21.3861 21.5034 20.7166C21.5034 19.4266 21.5034 17.7591 21.5034 16.5766C21.5034 16.0031 21.0344 15.5391 20.4559 15.5391L17.0279 15.5001C16.5964 15.5001 16.3499 15.9886 16.6089 16.3311L17.1749 17.1436C17.3879 17.4251 17.5029 17.7676 17.5029 18.1191L17.4999 21.7781C17.4999 22.4146 16.7284 22.7256 16.2704 22.2796C14.7209 20.7706 13.3764 17.6891 12.8924 16.2156C12.7524 15.7891 12.3529 15.5011 11.8999 15.5001L10.0514 15.4956C9.35794 15.4956 8.85094 16.1531 9.03944 16.8151C10.7284 22.7436 14.1939 28.3836 20.3699 28.9951C20.9784 29.0551 21.5034 28.5651 21.5034 27.9586V26.0356C21.5034 25.4841 21.9359 25.0101 22.4919 24.9961C22.5114 24.9956 22.5309 24.9956 22.5504 24.9956C24.1839 24.9956 26.0134 27.3731 26.6534 28.4851C26.8374 28.8051 27.1814 29.0001 27.5534 29.0001H30.0399C30.7654 29.0001 31.2309 28.2306 30.8814 27.6011Z" fill="white"/>
</svg>

<svg width="42" height="42" fill="none" xmlns="http://www.w3.org/2000/svg"><circle cx="21" cy="21" r="20.5" stroke="#fff"/><path d="M30.881 27.601c-.898-1.617-3.213-3.56-4.168-4.405a.621.621 0 01-.052-.888c1.824-1.96 3.282-4.211 3.784-5.572.222-.6-.237-1.236-.883-1.236h-1.876c-.619 0-.98.222-1.153.576-1.516 3.105-2.816 4.45-3.726 5.235-.51.44-1.304.075-1.304-.594v-4.14c0-.574-.469-1.038-1.047-1.038l-3.428-.039a.52.52 0 00-.42.831l.567.813c.213.281.328.624.328.975l-.003 3.66c0 .636-.772.947-1.23.5-1.55-1.508-2.894-4.59-3.378-6.063a1.044 1.044 0 00-.992-.716l-1.849-.004c-.693 0-1.2.657-1.012 1.32 1.69 5.928 5.155 11.568 11.33 12.18a1.04 1.04 0 001.134-1.037v-1.923c0-.552.433-1.026.989-1.04h.058c1.634 0 3.463 2.377 4.103 3.49.184.32.528.514.9.514h2.487c.725 0 1.19-.77.841-1.399z" fill="#fff"/></svg>
